fs/arrow_sort_down_lines_24_regular.svg

<svg viewBox="0 0 24 24" fill="none" xmlns="http://www.w3.org/2000/svg" height="1em" width="1em">
  <path d="M8.75086 4L8.64909 4.00685C8.28301 4.05651 8.00086 4.3703 8.00086 4.75L8 17.442L4.78011 14.2244L4.69596 14.1518C4.40226 13.9341 3.9856 13.9585 3.71945 14.2248C3.42668 14.5179 3.42688 14.9927 3.71989 15.2855L8.22365 19.7855L8.3078 19.8581C8.6015 20.0758 9.01816 20.0514 9.28431 19.7851L13.7806 15.2851L13.8531 15.2009C14.0709 14.9072 14.0465 14.4905 13.7801 14.2244L13.696 14.1518C13.4023 13.9341 12.9856 13.9585 12.7194 14.2248L9.5 17.446L9.50086 4.75L9.49401 4.64823C9.44435 4.28215 9.13056 4 8.75086 4ZM12.25 4.5C11.8358 4.5 11.5 4.83579 11.5 5.25C11.5 5.66421 11.8358 6 12.25 6H20.25C20.6642 6 21 5.66421 21 5.25C21 4.83579 20.6642 4.5 20.25 4.5H12.25ZM11.5 8.25C11.5 7.83579 11.8358 7.5 12.25 7.5H17.25C17.6642 7.5 18 7.83579 18 8.25C18 8.66421 17.6642 9 17.25 9H12.25C11.8358 9 11.5 8.66421 11.5 8.25ZM12.25 10.5C11.8358 10.5 11.5 10.8358 11.5 11.25C11.5 11.6642 11.8358 12 12.25 12H14.25C14.6642 12 15 11.6642 15 11.25C15 10.8358 14.6642 10.5 14.25 10.5H12.25Z" fill="#212121"/>
</svg>

<svg viewBox="0 0 24 24" fill="none" xmlns="http://www.w3.org/2000/svg" height="1em" width="1em">
  <path d="m8.75 4-.1.007A.75.75 0 0 0 8 4.75v12.692l-3.22-3.218-.084-.072a.75.75 0 0 0-.976 1.134l4.504 4.5.084.072a.75.75 0 0 0 .976-.073l4.497-4.5.072-.084a.75.75 0 0 0-.073-.977l-.084-.072a.75.75 0 0 0-.977.073L9.5 17.446V4.75l-.006-.102A.75.75 0 0 0 8.751 4Zm3.5.5a.75.75 0 0 0 0 1.5h8a.75.75 0 0 0 0-1.5h-8Zm-.75 3.75a.75.75 0 0 1 .75-.75h5a.75.75 0 0 1 0 1.5h-5a.75.75 0 0 1-.75-.75Zm.75 2.25a.75.75 0 0 0 0 1.5h2a.75.75 0 0 0 0-1.5h-2Z" fill="#212121"/>
</svg>
